src/main/resources/icons/CidrProjectModelIcons/icons/framework.svg

<svg xmlns="http://www.w3.org/2000/svg" width="16" height="16" viewBox="0 0 16 16"><rect id="frame" width="16" height="16" fill="none"/><path fill="#9AA7B0" fill-opacity=".8" fill-rule="evenodd" d="M1 4h14v10H1V4zm8 4v2H7V8H1V7h14v1H9zM5 1h6v3H5V1zm1 1h4v2H6V2z"/></svg>

<svg xmlns="http://www.w3.org/2000/svg" width="16" height="16" viewBox="0 0 16 16">
  <path fill="#9AA7B0" fill-opacity=".8" fill-rule="evenodd" d="M1 4L15 4 15 14 1 14 1 4zM9 8L9 10 7 10 7 8 1 8 1 7 15 7 15 8 9 8zM5 1L11 1 11 4 5 4 5 1zM6 2L10 2 10 4 6 4 6 2z"/>
</svg>
